X:280
T: Beim Herumtrinken
N: A0321
O: Europa, Mitteleuropa, Deutschland
N: Forster Lieder 4. Theil 1556
R: Romanze, Ballade, Lied, Trinklied
M: 4/2
L: 1/2
K: G
GGG | dd_ee | c2
d_e | =fg_e2 | d2z
d | gg_ee | =ffd2 | cAG2
_Bcd2 | _Bcd2 | GA_Bc | A2G2
_Bcd2 | _Bcd2 | GA_Bc | A2G2
GA_Bc | A2G2 | z

